X:18
T:En faisant le tour du moulin
R:Rondanse
A:Normandie
O:France
Z:Transcrit et/ou corrig par Michel BELLON - 2005-09-10
Z:Pour toute observation mailto:galouvielle@free.fr
%%continueall 1
M:6/8
Q:1/4=104
K:G
V:1
BBB | d3cBA | G3 [P:Intro]BBB|d2 G A3|!breath!G3 BBB| d3 cBA|G3 BBB|d2 G A3| G3 z2
